build/service/CheckSolid.svg

<svg xmlns="http://www.w3.org/2000/svg" fill="none" viewBox="0 0 24 24" focusable="false"><path d="M0 0H24V24H0z"/><path fill="#74767B" fill-rule="evenodd" d="M3 12C3 7.02944 7.02944 3 12 3C16.9706 3 21 7.02944 21 12C21 16.9706 16.9706 21 12 21C7.02944 21 3 16.9706 3 12ZM10.7899 15.2899C11.07 15.5699 11.5299 15.5599 11.7999 15.2699L16.2199 10.4699C16.4599 10.1999 16.4399 9.78988 16.1799 9.54988C15.9199 9.30988 15.4999 9.31988 15.2599 9.58988L11.2699 13.9299L8.86995 11.5299C8.61995 11.2799 8.19995 11.2799 7.94995 11.5299C7.69995 11.7799 7.69995 12.1999 7.94995 12.4499L10.7899 15.2899Z"/></svg>

<svg xmlns="http://www.w3.org/2000/svg" fill="none" viewBox="0 0 24 24" focusable="false"><path fill="#74767B" fill-rule="evenodd" d="M3 12c0-4.98 4.02-9 9-9 4.97 0 9 4.02 9 9a9 9 0 0 1-9 9c-4.98 0-9-4.03-9-9m7.79 3.28c.27.28.73.27 1-.02l4.42-4.8c.24-.27.22-.68-.03-.92a.66.66 0 0 0-.93.04l-3.98 4.34-2.4-2.4a.67.67 0 0 0-.93 0c-.25.25-.25.67 0 .92z"/></svg>
